src/assets/img/order-success.svg

<svg width="185" height="185" viewBox="0 0 185 185" fill="none" xmlns="http://www.w3.org/2000/svg">
<rect width="185" height="185" fill="white"/>
<path d="M125.047 41.7827H65.282C63.4125 41.7827 61.897 43.2934 61.897 45.1569V137.243C61.897 139.106 63.4125 140.617 65.282 140.617H139.611C141.481 140.617 142.996 139.106 142.996 137.243V59.8119L125.047 41.7827Z" fill="#4E5C93"/>
<path d="M125.047 41.6426L125.076 56.4452C125.076 58.3087 126.591 59.8194 128.461 59.8194H142.996" fill="#E4EBF7"/>
<path d="M98.0133 51H38.3848C36.5153 51 34.9998 52.5107 34.9998 54.3741V146.46C34.9998 148.324 36.5153 149.834 38.3848 149.834H112.855C114.725 149.834 116.24 148.324 116.24 146.46V70.7149H103.232C101.363 70.7149 98.0133 69.2049 98.0133 67.3407V51Z" fill="#E4EBF7"/>
<path d="M59.7323 60H46.3212C45.0392 60 44 61.0392 44 62.3212V75.6743C44 76.9562 45.0392 77.9955 46.3212 77.9955H59.7323C61.0142 77.9955 62.0534 76.9562 62.0534 75.6743V62.3212C62.0534 61.0392 61.0142 60 59.7323 60Z" fill="#A3B5D6"/>
<path d="M52.0398 72.8636H53.8239V69.8239H56.8636V68.0398H53.8239V65H52.0398V68.0398H49V69.8239H52.0398V72.8636Z" fill="#E4EBF7"/>
<path d="M56 100C56 98.6739 56.5268 97.4021 57.4645 96.4645C58.4021 95.5268 59.6739 95 61 95H91C92.3261 95 93.5979 95.5268 94.5355 96.4645C95.4732 97.4021 96 98.6739 96 100V112.5H56V100ZM84.75 102.5C84.4185 102.5 84.1005 102.632 83.8661 102.866C83.6317 103.101 83.5 103.418 83.5 103.75V106.25C83.5 106.582 83.6317 106.899 83.8661 107.134C84.1005 107.368 84.4185 107.5 84.75 107.5H89.75C90.0815 107.5 90.3995 107.368 90.6339 107.134C90.8683 106.899 91 106.582 91 106.25V103.75C91 103.418 90.8683 103.101 90.6339 102.866C90.3995 102.632 90.0815 102.5 89.75 102.5H84.75ZM56 117.5V120C56 121.326 56.5268 122.598 57.4645 123.536C58.4021 124.473 59.6739 125 61 125H91C92.3261 125 93.5979 124.473 94.5355 123.536C95.4732 122.598 96 121.326 96 120V117.5H56Z" fill="#A3B5D6"/>
<path d="M97.9714 50.8062V67.1469C97.9714 69.0104 99.487 70.521 101.356 70.521H116.198" fill="white"/>
<path fill-rule="evenodd" clip-rule="evenodd" d="M122.152 28.1802C106.703 28.1802 94.1799 40.7036 94.1799 56.1521C94.1799 71.6005 106.703 84.124 122.152 84.124C137.6 84.124 150.124 71.6005 150.124 56.1521C150.124 40.7036 137.6 28.1802 122.152 28.1802Z" fill="#0BB8E4"/>
<path fill-rule="evenodd" clip-rule="evenodd" d="M117.645 65.6536L115.879 63.8877L132.992 46.7124C133.577 46.1271 134.525 46.1271 135.111 46.7124L135.817 47.4187C136.402 48.0039 136.402 48.9527 135.817 49.538L119.764 65.6536C119.179 66.2388 118.23 66.2388 117.645 65.6536Z" fill="white"/>
<path fill-rule="evenodd" clip-rule="evenodd" d="M121.527 63.888L119.761 65.6539C119.175 66.2392 118.227 66.2392 117.641 65.6539L110.609 58.6219C110.024 58.0367 110.024 57.0879 110.609 56.5027L111.316 55.7963C111.901 55.2111 112.85 55.2111 113.435 55.7963L121.527 63.888Z" fill="white"/>
</svg>

<svg xmlns="http://www.w3.org/2000/svg" width="185" height="185" fill="none" xmlns:v="https://vecta.io/nano"><path fill="#fff" d="M0 0h185v185H0z"/><path d="M125.047 41.783H65.282a3.38 3.38 0 0 0-3.385 3.374v92.086a3.38 3.38 0 0 0 3.385 3.374h74.329a3.38 3.38 0 0 0 3.385-3.374V59.812l-17.949-18.029z" fill="#4e5c93"/><path d="M125.047 41.643l.029 14.803a3.38 3.38 0 0 0 3.385 3.374h14.535M98.013 51H38.385A3.38 3.38 0 0 0 35 54.374v92.086a3.38 3.38 0 0 0 3.385 3.374h74.47a3.38 3.38 0 0 0 3.385-3.374V70.715h-13.008c-1.869 0-5.219-1.51-5.219-3.374V51z" fill="#e4ebf7"/><path d="M59.732 60H46.321A2.32 2.32 0 0 0 44 62.321v13.353a2.32 2.32 0 0 0 2.321 2.321h13.411a2.32 2.32 0 0 0 2.321-2.321V62.321A2.32 2.32 0 0 0 59.732 60z" fill="#a3b5d6"/><path d="M52.04 72.864h1.784v-3.04h3.04V68.04h-3.04V65H52.04v3.04H49v1.784h3.04v3.04z" fill="#e4ebf7"/><path d="M56 100a5 5 0 0 1 5-5h30a5 5 0 0 1 5 5v12.5H56V100zm28.75 2.5a1.25 1.25 0 0 0-1.25 1.25v2.5a1.25 1.25 0 0 0 1.25 1.25h5a1.25 1.25 0 0 0 1.25-1.25v-2.5a1.25 1.25 0 0 0-1.25-1.25h-5zM56 117.5v2.5a5 5 0 0 0 5 5h30a5 5 0 0 0 5-5v-2.5H56z" fill="#a3b5d6"/><path d="M97.971 50.806v16.341a3.38 3.38 0 0 0 3.385 3.374h14.842" fill="#fff"/><g fill-rule="evenodd"><path d="M122.152 28.18c-15.449 0-27.972 12.523-27.972 27.972s12.523 27.972 27.972 27.972 27.972-12.523 27.972-27.972S137.6 28.18 122.152 28.18z" fill="#0bb8e4"/><g fill="#fff"><path d="M117.645 65.654l-1.766-1.766 17.113-17.175a1.5 1.5 0 0 1 2.119 0l.706.706a1.5 1.5 0 0 1 0 2.119l-16.053 16.116a1.5 1.5 0 0 1-2.119 0z"/><path d="M121.527 63.888l-1.766 1.766a1.5 1.5 0 0 1-2.12 0l-7.032-7.032a1.5 1.5 0 0 1 0-2.119l.707-.706a1.5 1.5 0 0 1 2.119 0l8.092 8.092z"/></g></g></svg>
